static/assets/images/tokens/frax.svg

<svg width="256" height="256" viewBox="0 0 256 256" fill="none" xmlns="http://www.w3.org/2000/svg">
<path d="M128 256C198.692 256 256 198.692 256 128C256 57.3075 198.692 0 128 0C57.3075 0 0 57.3075 0 128C0 198.692 57.3075 256 128 256Z" fill="black"/>
<path d="M52.6495 51.6127C46.8707 57.6762 42.1031 62.7773 42.055 62.8735C42.0068 63.0179 47.2078 68.119 53.6127 74.1826C60.0176 80.2942 65.6038 85.636 65.989 85.9728L66.7114 86.6465L65.4111 88.8121C53.9979 107.676 51.6382 130.391 58.8136 151.276C60.162 155.223 62.4736 160.275 64.448 163.596C65.4111 165.232 65.8445 166.291 65.7482 166.483C65.6519 166.676 59.8249 172.836 52.794 180.199C45.7631 187.513 40.0324 193.625 39.9361 193.721C39.8879 193.866 59.5841 212.874 61.4623 214.414L62.1846 215.04L73.3089 203.442C79.4248 197.042 85.1555 191.026 86.0223 190.112L87.6597 188.476L89.2007 189.438C97.0503 194.443 106.248 197.908 116.409 199.737C121.514 200.651 131.242 200.892 136.683 200.218C147.182 199.015 157.584 195.502 166.107 190.353L168.323 189.005L170.682 191.315C175.835 196.32 195.098 214.607 195.291 214.703C195.483 214.799 216.624 192.711 216.576 192.422C216.528 192.278 202.033 178.37 193.172 170.045L190.234 167.253L191.582 165.04C202.899 146.223 205.259 123.413 197.939 102.383C196.88 99.303 193.653 92.3732 191.775 89.1971L190.86 87.609L203.236 74.6638C210.027 67.5897 215.565 61.6705 215.516 61.5261C215.324 61.0449 193.653 40.5924 193.364 40.5924C193.172 40.5924 187.73 46.1266 181.229 52.9601C174.728 59.7455 169.334 65.3278 169.189 65.376C169.093 65.4241 168.467 65.1354 167.889 64.7022C166.252 63.5954 162.11 61.3336 159.799 60.2749C152.768 57.0506 146.219 55.0775 138.61 53.9707C134.661 53.3932 122.814 53.297 119.154 53.8263C110.39 55.0775 103.214 57.2431 95.8945 60.9005C93.7756 61.9111 91.3196 63.2585 90.3565 63.836L88.6228 64.8947L86.6484 62.9698C85.5889 61.9111 80.7732 57.3875 76.0057 52.8157C71.2381 48.2921 66.3743 43.6723 65.2185 42.5173L63.0996 40.448L52.6495 51.6127ZM133.505 82.9892C141.162 83.9035 148 86.5022 154.309 90.9295C157.535 93.1913 162.351 98.0037 164.615 101.228C177.472 119.419 175.016 144.154 158.836 159.313C145.015 172.21 125.029 175.098 108.223 166.532C96.0871 160.324 87.5152 148.966 84.7702 135.348C83.9034 131.016 83.9034 122.932 84.7702 118.649C85.5889 114.414 86.6965 111.382 88.7673 107.147C97.0503 90.4964 115.013 80.7755 133.505 82.9892Z" fill="white"/>
</svg>

<svg xmlns="http://www.w3.org/2000/svg" fill="none" viewBox="0 0 256 256"><path fill="#000" d="M128 256c70.692 0 128-57.308 128-128S198.692 0 128 0 0 57.308 0 128s57.308 128 128 128"/><path fill="#fff" d="M52.65 51.613c-5.78 6.063-10.547 11.164-10.595 11.26-.048.145 5.153 5.246 11.558 11.31 6.405 6.111 11.99 11.453 12.376 11.79l.722.674-1.3 2.165c-11.413 18.864-13.773 41.579-6.597 62.464 1.348 3.947 3.66 8.999 5.634 12.32.963 1.636 1.397 2.695 1.3 2.887s-5.923 6.353-12.954 13.716c-7.03 7.314-12.762 13.426-12.858 13.522-.048.145 19.648 19.153 21.526 20.693l.723.626 11.124-11.598c6.116-6.4 11.847-12.416 12.713-13.33l1.638-1.636 1.54.962c7.85 5.005 17.048 8.47 27.209 10.299 5.105.914 14.833 1.155 20.274.481 10.499-1.203 20.901-4.716 29.424-9.865l2.216-1.348 2.359 2.31c5.153 5.005 24.416 23.292 24.609 23.388.192.096 21.333-21.992 21.285-22.281-.048-.144-14.543-14.052-23.404-22.377l-2.938-2.792 1.348-2.213c11.317-18.817 13.677-41.627 6.357-62.657-1.059-3.08-4.286-10.01-6.164-13.186l-.915-1.588 12.376-12.945c6.791-7.074 12.329-12.994 12.28-13.138-.192-.481-21.863-20.934-22.152-20.934-.192 0-5.634 5.535-12.135 12.368-6.501 6.785-11.895 12.368-12.04 12.416-.096.048-.722-.24-1.3-.674-1.637-1.107-5.779-3.368-8.09-4.427-7.031-3.224-13.58-5.197-21.189-6.304-3.949-.578-15.796-.674-19.456-.145-8.764 1.252-15.94 3.417-23.26 7.075-2.118 1.01-4.574 2.357-5.538 2.935l-1.733 1.059-1.975-1.925c-1.06-1.059-5.875-5.582-10.642-10.154-4.768-4.524-9.632-9.144-10.787-10.299l-2.12-2.069zm80.855 31.376c7.657.914 14.495 3.513 20.804 7.94 3.226 2.262 8.042 7.075 10.306 10.299 12.857 18.191 10.401 42.926-5.779 58.085-13.821 12.897-33.807 15.785-50.613 7.219-12.136-6.208-20.708-17.566-23.453-31.184-.867-4.332-.867-12.416 0-16.699.819-4.235 1.927-7.267 3.997-11.502 8.283-16.65 26.246-26.372 44.738-24.158"/></svg>
